X: 1685
T: Antara
R: reel
M: 4/4
K: Gmajor
|:F|D2GA B3d|G2dB cAAF|DGBd eccA|BGAF DGGF|
DGGA ~B3d|dGBd cAAF|DGBd eccA|BGAF DGG:|
|:A|BGdB c3B|ADFA dBcA|BGBd ~e3c|BGAF DGGA|
BGdB cABG|ADFA dBcA|BGBd eccA|BGAF DGG:|

